static/assets/images/exchanges/syncswap.svg

<svg width="181" height="256" viewBox="0 0 181 256" fill="none" xmlns="http://www.w3.org/2000/svg">
<path d="M78.728 107.178C92.5294 117.934 108.218 125.972 120.958 138.265C141.365 158.005 151.156 184.601 138.534 212.024C125.322 240.63 92.5294 262.97 55.018 253.987C23.1686 246.303 1.11 218.998 0.0483566 186.02C-0.423485 171.008 2.52553 156.941 10.3109 144.057C11.7264 141.811 11.6085 140.511 9.13132 139.211C7.24395 138.265 4.17698 137.438 4.29494 135.428C4.4129 133.419 7.59783 133.064 9.60316 132C19.158 127.036 28.7128 122.071 38.2676 117.225C39.5651 116.516 40.7447 115.57 42.7501 115.57C42.1603 129.873 41.5705 144.057 40.8627 158.596C37.7957 157.651 35.5545 155.878 33.1953 154.223C31.1899 152.804 30.1283 152.686 28.7128 155.05C12.4342 183.419 24.4662 225.145 61.0339 233.065C84.2721 238.147 105.151 225.145 115.178 209.542C126.738 191.457 124.615 173.372 109.398 157.06C106.213 153.632 102.792 150.322 99.3711 147.012C97.1298 139.329 92.2935 132.946 88.7547 125.854C85.4518 119.707 81.2052 113.915 78.728 107.178Z" fill="#8767D5"/>
<path d="M78.728 107.178C81.2052 113.915 85.4517 119.707 88.6367 126.209C92.1755 133.301 97.0119 139.684 99.2531 147.367C89.9342 140.984 80.3795 134.719 71.2965 127.982C60.798 120.298 52.1869 110.842 46.0529 99.2581C37.2059 82.355 36.0263 64.6244 43.9297 47.1303C55.0179 22.1893 74.1276 5.87722 101.023 1.03087C129.923 -4.28829 158.941 11.4328 172.389 37.674C184.657 61.5511 183.595 85.1919 170.619 108.36C168.142 112.733 168.732 114.743 172.978 116.516C174.748 117.225 176.163 118.525 178.641 120.062C165.311 126.918 152.453 133.537 138.888 140.629C139.478 125.617 140.067 111.315 140.775 96.1848C143.37 97.8397 145.494 99.0217 147.499 100.44C149.504 101.859 150.684 101.622 151.981 99.4945C166.845 75.8538 160.475 44.2934 137.472 28.8087C118.717 16.1609 94.6527 18.7614 77.4304 35.1917C70.8247 41.4565 65.2805 48.4305 62.0956 57.1776C55.9616 74.1989 61.5058 88.3834 72.712 101.149C74.5994 103.277 76.7227 105.168 78.728 107.178Z" fill="#B4B8FF"/>
</svg>

<svg xmlns="http://www.w3.org/2000/svg" fill="none" viewBox="0 0 181 256"><path fill="#8767D5" d="M78.728 107.178c13.801 10.756 29.49 18.794 42.23 31.087 20.407 19.74 30.198 46.336 17.576 73.759-13.212 28.606-46.005 50.946-83.516 41.963-31.85-7.684-53.908-34.989-54.97-67.967-.471-15.012 2.478-29.079 10.263-41.963 1.415-2.246 1.297-3.546-1.18-4.846-1.887-.946-4.954-1.773-4.836-3.783s3.303-2.364 5.308-3.428c9.555-4.964 19.11-9.929 28.665-14.775 1.297-.709 2.477-1.655 4.482-1.655-.59 14.303-1.18 28.487-1.887 43.026-3.067-.945-5.309-2.718-7.668-4.373-2.005-1.419-3.067-1.537-4.482.827-16.279 28.369-4.247 70.095 32.32 78.015 23.24 5.082 44.118-7.92 54.145-23.523 11.56-18.085 9.437-36.17-5.78-52.482-3.185-3.428-6.606-6.738-10.027-10.048-2.241-7.683-7.078-14.066-10.616-21.158-3.303-6.147-7.55-11.939-10.027-18.676"/><path fill="#B4B8FF" d="M78.728 107.178c2.477 6.737 6.724 12.529 9.909 19.031 3.538 7.092 8.375 13.475 10.616 21.158-9.319-6.383-18.874-12.648-27.957-19.385-10.498-7.684-19.11-17.14-25.243-28.724-8.847-16.903-10.027-34.634-2.123-52.128 11.088-24.94 30.198-41.253 57.093-46.1 28.9-5.318 57.918 10.403 71.366 36.644 12.268 23.877 11.206 47.518-1.77 70.686-2.477 4.373-1.887 6.383 2.359 8.156 1.77.709 3.185 2.009 5.663 3.546-13.33 6.856-26.188 13.475-39.753 20.567.59-15.012 1.179-29.314 1.887-44.444 2.595 1.655 4.719 2.837 6.724 4.255 2.005 1.419 3.185 1.182 4.482-.945 14.864-23.641 8.494-55.202-14.509-70.686-18.755-12.648-42.82-10.048-60.042 6.383-6.605 6.264-12.15 13.239-15.334 21.986-6.134 17.02-.59 31.205 10.616 43.971 1.887 2.128 4.01 4.019 6.016 6.029"/></svg>
